X:2756
T:I Care Not For these Ladies          %Tune name
C:By Thomas Campian          %Tune composer
Q:1/4=200     %Tempo
O:England
M:6/8     %Meter
L:1/8     %
K:C
G | "C"c2 d e2 f | e3 "G"d2 B | "C"c2 c "F"f2 e |1"G"d3-d2 :|
[2"G"d3-d2 z||"F"A2 B c2 d | "G"B3 G2 g | "C"g2 a "G"f2 g | "C"e3 e2 g |
"Em"g3/f/e d2 e | "F"f3 z2 f |f3/g/f "C"e2 "^"e | "G"d3 z2 e | d2 c d2 B |
"C"c2 c "F"d3/e/f | "C"gfe "G"d2 d | "C"c3-c2 z |]


